X: 897
T: Görsem Seni Doyunca
C: Dede Efendi
O: Turkey
F: http://compmusic.upf.edu/node/140
N: rast--sarki--duyek--gorsem_seni--dede_efendi
N: makam= rast
N: form= sarki
N: usul= duyek = 8/4
M: 8/4
L: 1/16
K: C _1/4B ^f  
Q: 1/4=120
%%MIDI tuningsystem comma53
z2 G4 A2 B3A B2 G2  | A6 c2 B3A G2 A2  | \
w:  Gör *  sem  *  *  se  |  ni   | 
z2 B4 AG G2 c4 BA  | 
w:  do *  *  *  yun  | 
d4 ^c2 ed d6 z2  | d3e f3e d2 g2 f2 e2  | \
w:  ca    |  Do *  *  *  yun *  *  ca   | 
d2 e2 d2 cB c2 d2 c2 B2  | 
w:  se *  *  *  *  ni   | 
z2 A4 e2 d2 c2 B2 A2  | A2 B4 AG G6 z2  | \
w:  gör  |  sem    | 
z2 G4 A2 B3A B2 G2  | A6 c2 B3A G2 A2  | 
w:  Gör *  sem  *  *  se  |  ni   | 
z2 B4 AG G2 c4 BA  | d4 ^c2 ed d6 z2  | \
w:  do *  *  *  yun  |  ca    | 
d3e f3e d2 g2 f2 e2  | 
w:  Do *  *  *  yun *  *  ca   | 
d2 e2 d2 cB c2 d2 c2 B2  | z2 A4 e2 d2 c2 B2 A2  | \
w:  se *  *  *  *  ni   |  gör  | 
A2 B4 AG G6 z2  | 
w:  sem    | 
e3d d3c c3B B3A  | A2 GF BA GF E4 z2 d2  | \
w:  Gel  *  gül  *  yüz *  lü   |  câ *  *  *  *  *  *  nâ   Gel   | 
d3c c3B B3A A3G  | 
w:  et *  me  *  çeş *  mim   | 
G2 FG BA GF E4 z2 B2  | B6 G2 c6 A2  | \
w:  gir *  *  *  *  *  *  yân   Se  |  nin le  bir  ge  | 
d4 ^c2 ed d6 z2  | d2 cB e2 dc B6 AG  | 
w:  ce   |  o *  *  *  *  *  la  | 
A2 GA B2 AG GA Bc de fg  | g3f e2 d2 e2 f2 g4  | 
w:  lım  *  *  *  ni *  hân   SAZ  |  Kaç ma  ey  pe ri  *  sen   | 
g3f e2 d2 g8  | g3f g2 e2 d2 cB e2 dc  | \
w:  söy le  ki min sin    |  Sen  be nim  mi sin  *  *  söy  | 
B2 AB dc BA GA Bc de fg  | 
w:  le  a *  man  *  a *  man   SAZ  | 
g3f e2 d2 e2 f2 g4  | g3f e2 d2 g8  | \
w:  Kaç ma  ey  pe ri  *  sen   |  söy le  ki min sin    | 
g3f g2 e2 d2 cB e2 dc  | 
w:  Sen  be nim  mi sin  *  *  söy  | 
B2 AB dc BA G4 ze dc  | B2 AB dc BA GF GA Bc dc  | 
w:  le  a *  man  *  a *  man   SAZ  |  ARANAĞME  | 
B2 AB dc BA G4 ze dc  | B2 AB dc BA GF GA Bc de  | 
w:   |   | 
dg fe dc BA G4 ze dc  | B2 AB dc BA GF GA Bc dc  | 
w:   |  ARANAĞME  | 
B2 AB dc BA G4 ze dc  | B2 AB dc BA GF GA Bc de  | 
w:   |   | 
dg fe dc BA G2 D2 G4  | |


